src/Assets/icons/06-text/text-icon-darkblue-nobg.svg

<svg viewBox="0 0 2000 2000" xmlns="http://www.w3.org/2000/svg" xml:space="preserve" style="fill-rule:evenodd;clip-rule:evenodd;stroke-linecap:round;stroke-linejoin:round;stroke-miterlimit:1.5">
    <path style="fill:none" d="M6624.33 0h2000v2000h-2000z" transform="translate(-6624.33)"/>
    <path d="M424 353s134.794-10.921 137 175c2.206 185.921-1 949-1 949s11.044 135.98 191 144.33h729c-182.96-12.35-190-143.33-190-143.33s2.21-764.079 0-950c-2.21-185.921-137-175-137-175l-729-.121" style="fill:#172d4f;stroke:#fff;stroke-width:36.44px" transform="matrix(1.76274 0 0 1.4202 -678.122 -401.882)"/>
    <path d="M661 567h233" style="fill:none;stroke:#fff;stroke-width:26.22px" transform="matrix(2.09967 0 0 1.69165 -969.008 -627.779)"/>
    <path d="M661 567h233" style="fill:none;stroke:#fff;stroke-width:26.22px" transform="matrix(2.09967 0 0 1.69165 -969.008 -155.82)"/>
    <path d="M661 567h233" style="fill:none;stroke:#fff;stroke-width:130.01px" transform="matrix(.42354 0 0 .34124 689.03 609.868)"/>
    <path d="M661 567h233" style="fill:none;stroke:#fff;stroke-width:95.42px" transform="matrix(.65784 0 0 .34124 693.736 609.868)"/>
    <path d="M661 567h233" style="fill:none;stroke:#fff;stroke-width:95.42px" transform="matrix(.65784 0 0 .34124 907.903 609.868)"/>
    <path d="M661 567h233" style="fill:none;stroke:#fff;stroke-width:26.22px" transform="matrix(2.09967 0 0 1.69165 -969.008 316.138)"/>
    <path d="M661 567h233" style="fill:none;stroke:#fff;stroke-width:130.01px" transform="matrix(.42354 0 0 .34124 689.03 1081.826)"/>
    <path d="M661 567h233" style="fill:none;stroke:#fff;stroke-width:95.42px" transform="matrix(.65784 0 0 .34124 693.736 1081.826)"/>
    <path d="M661 567h233" style="fill:none;stroke:#fff;stroke-width:95.42px" transform="matrix(.65784 0 0 .34124 907.903 1081.826)"/>
    <path d="M661 567h233" style="fill:none;stroke:#fff;stroke-width:26.22px" transform="matrix(2.09967 0 0 1.69165 -791.756 -313.14)"/>
    <path d="M661 567h233" style="fill:none;stroke:#fff;stroke-width:130.01px" transform="matrix(.42354 0 0 .34124 885.52 452.55)"/>
    <path d="M661 567h233" style="fill:none;stroke:#fff;stroke-width:130.01px" transform="matrix(.42354 0 0 .34124 137.356 452.55)"/>
    <path d="M661 567h233" style="fill:none;stroke:#fff;stroke-width:95.42px" transform="matrix(.65784 0 0 .34124 909.463 452.55)"/>
    <path d="M661 567h233" style="fill:none;stroke:#fff;stroke-width:26.22px" transform="matrix(2.09967 0 0 1.69165 -791.756 158.817)"/>
    <path d="M661 567h233" style="fill:none;stroke:#fff;stroke-width:130.01px" transform="matrix(.42354 0 0 .34124 885.52 924.506)"/>
    <path d="M661 567h233" style="fill:none;stroke:#fff;stroke-width:130.01px" transform="matrix(.42354 0 0 .34124 137.356 924.506)"/>
    <path d="M661 567h233" style="fill:none;stroke:#fff;stroke-width:95.42px" transform="matrix(.65784 0 0 .34124 909.463 924.506)"/>
    <path d="M661 567h233" style="fill:none;stroke:#fff;stroke-width:26.22px" transform="matrix(2.09967 0 0 1.69165 -791.756 630.775)"/>
    <path d="M661 567h233" style="fill:none;stroke:#fff;stroke-width:130.01px" transform="matrix(.42354 0 0 .34124 885.52 1396.464)"/>
    <path d="M661 567h233" style="fill:none;stroke:#fff;stroke-width:130.01px" transform="matrix(.42354 0 0 .34124 137.356 1396.464)"/>
    <path d="M661 567h233" style="fill:none;stroke:#fff;stroke-width:95.42px" transform="matrix(.65784 0 0 .34124 909.463 1396.464)"/>
    <path d="M661 567h233" style="fill:none;stroke:#fff;stroke-width:130.01px" transform="matrix(.42354 0 0 .34124 676.996 295.228)"/>
    <path d="M661 567h233" style="fill:none;stroke:#fff;stroke-width:130.01px" transform="matrix(.42354 0 0 .34124 832.414 295.228)"/>
    <path d="M661 567h233" style="fill:none;stroke:#fff;stroke-width:95.42px" transform="matrix(.65784 0 0 .34124 -16.458 295.228)"/>
    <path d="M661 567h233" style="fill:none;stroke:#fff;stroke-width:95.42px" transform="matrix(.65784 0 0 .34124 286.514 295.228)"/>
    <path d="M661 567h233" style="fill:none;stroke:#fff;stroke-width:95.42px" transform="matrix(.65784 0 0 .34124 908.406 295.228)"/>
    <path d="M661 567h233" style="fill:none;stroke:#fff;stroke-width:130.01px" transform="matrix(.42354 0 0 .34124 676.996 767.185)"/>
    <path d="M661 567h233" style="fill:none;stroke:#fff;stroke-width:130.01px" transform="matrix(.42354 0 0 .34124 832.414 767.185)"/>
    <path d="M661 567h233" style="fill:none;stroke:#fff;stroke-width:95.42px" transform="matrix(.65784 0 0 .34124 -16.458 767.185)"/>
    <path d="M661 567h233" style="fill:none;stroke:#fff;stroke-width:95.42px" transform="matrix(.65784 0 0 .34124 286.514 767.185)"/>
    <path d="M661 567h233" style="fill:none;stroke:#fff;stroke-width:95.42px" transform="matrix(.65784 0 0 .34124 908.406 767.185)"/>
    <path d="M661 567h233" style="fill:none;stroke:#fff;stroke-width:130.01px" transform="matrix(.42354 0 0 .34124 676.996 1239.143)"/>
    <path d="M661 567h233" style="fill:none;stroke:#fff;stroke-width:130.01px" transform="matrix(.42354 0 0 .34124 832.414 1239.143)"/>
    <path d="M661 567h233" style="fill:none;stroke:#fff;stroke-width:95.42px" transform="matrix(.65784 0 0 .34124 -16.458 1239.143)"/>
    <path d="M661 567h233" style="fill:none;stroke:#fff;stroke-width:95.42px" transform="matrix(.65784 0 0 .34124 286.514 1239.143)"/>
    <path d="M661 567h233" style="fill:none;stroke:#fff;stroke-width:95.42px" transform="matrix(.65784 0 0 .34124 908.406 1239.143)"/>
</svg>

<?xml version="1.0" encoding="UTF-8" standalone="no"?>
<!DOCTYPE svg PUBLIC "-//W3C//DTD SVG 1.1//EN" "http://www.w3.org/Graphics/SVG/1.1/DTD/svg11.dtd">
<svg width="100%" height="100%" viewBox="0 0 2000 2000" version="1.1" xmlns="http://www.w3.org/2000/svg" xmlns:xlink="http://www.w3.org/1999/xlink" xml:space="preserve" xmlns:serif="http://www.serif.com/" style="fill-rule:evenodd;clip-rule:evenodd;stroke-linecap:round;stroke-linejoin:round;stroke-miterlimit:1.5;">
    <g transform="matrix(1,0,0,1,0,-2289)">
        <g id="Pergament_darkblue_text-icon" transform="matrix(1,0,0,1,-6624.33,2289)">
            <rect x="6624.33" y="0" width="2000" height="2000" style="fill:none;"/>
            <g id="Pergament_darkblue_text-icon1" serif:id="Pergament_darkblue_text-icon" transform="matrix(1.1753,0,0,0.94691,6449.04,53.0895)">
                <g transform="matrix(1.49982,0,0,1.49982,-427.833,-480.48)">
                    <path d="M424,353C424,353 558.794,342.079 561,528C563.206,713.921 560,1477 560,1477C560,1477 571.044,1612.98 751,1621.33L1480,1621.33C1297.04,1608.98 1290,1478 1290,1478C1290,1478 1292.21,713.921 1290,528C1287.79,342.079 1153,353 1153,353L424,352.879" style="fill:rgb(23,45,79);stroke:white;stroke-width:36.44px;"/>
                </g>
                <g id="Text" transform="matrix(1.7865,0,0,1.7865,-670.035,-719.042)">
                    <g transform="matrix(1,0,0,1,-2.96512,0)">
                        <path d="M661,567L894,567" style="fill:none;stroke:white;stroke-width:26.22px;"/>
                    </g>
                    <g transform="matrix(1,0,0,1,-2.96512,278.992)">
                        <path d="M661,567L894,567" style="fill:none;stroke:white;stroke-width:26.22px;"/>
                        <g transform="matrix(0.201717,0,0,0.201717,789.665,452.627)">
                            <path d="M661,567L894,567" style="fill:none;stroke:white;stroke-width:130.01px;"/>
                        </g>
                        <g transform="matrix(0.313305,0,0,0.201717,791.906,452.627)">
                            <path d="M661,567L894,567" style="fill:none;stroke:white;stroke-width:95.42px;"/>
                        </g>
                        <g transform="matrix(0.313305,0,0,0.201717,893.906,452.627)">
                            <path d="M661,567L894,567" style="fill:none;stroke:white;stroke-width:95.42px;"/>
                        </g>
                    </g>
                    <g transform="matrix(1,0,0,1,-2.96512,557.984)">
                        <path d="M661,567L894,567" style="fill:none;stroke:white;stroke-width:26.22px;"/>
                        <g transform="matrix(0.201717,0,0,0.201717,789.665,452.627)">
                            <path d="M661,567L894,567" style="fill:none;stroke:white;stroke-width:130.01px;"/>
                        </g>
                        <g transform="matrix(0.313305,0,0,0.201717,791.906,452.627)">
                            <path d="M661,567L894,567" style="fill:none;stroke:white;stroke-width:95.42px;"/>
                        </g>
                        <g transform="matrix(0.313305,0,0,0.201717,893.906,452.627)">
                            <path d="M661,567L894,567" style="fill:none;stroke:white;stroke-width:95.42px;"/>
                        </g>
                    </g>
                    <g transform="matrix(1,0,0,1,-2.46512,146.681)">
                        <g transform="matrix(1,0,0,1,83.919,39.3139)">
                            <path d="M661,567L894,567" style="fill:none;stroke:white;stroke-width:26.22px;"/>
                        </g>
                        <g transform="matrix(0.201717,0,0,0.201717,882.746,491.941)">
                            <path d="M661,567L894,567" style="fill:none;stroke:white;stroke-width:130.01px;"/>
                        </g>
                        <g transform="matrix(0.201717,0,0,0.201717,526.422,491.941)">
                            <path d="M661,567L894,567" style="fill:none;stroke:white;stroke-width:130.01px;"/>
                        </g>
                        <g transform="matrix(0.313305,0,0,0.201717,894.149,491.941)">
                            <path d="M661,567L894,567" style="fill:none;stroke:white;stroke-width:95.42px;"/>
                        </g>
                    </g>
                    <g transform="matrix(1,0,0,1,-2.46512,425.672)">
                        <g transform="matrix(1,0,0,1,83.919,39.3139)">
                            <path d="M661,567L894,567" style="fill:none;stroke:white;stroke-width:26.22px;"/>
                        </g>
                        <g transform="matrix(0.201717,0,0,0.201717,882.746,491.941)">
                            <path d="M661,567L894,567" style="fill:none;stroke:white;stroke-width:130.01px;"/>
                        </g>
                        <g transform="matrix(0.201717,0,0,0.201717,526.422,491.941)">
                            <path d="M661,567L894,567" style="fill:none;stroke:white;stroke-width:130.01px;"/>
                        </g>
                        <g transform="matrix(0.313305,0,0,0.201717,894.149,491.941)">
                            <path d="M661,567L894,567" style="fill:none;stroke:white;stroke-width:95.42px;"/>
                        </g>
                    </g>
                    <g transform="matrix(1,0,0,1,-2.46512,704.664)">
                        <g transform="matrix(1,0,0,1,83.919,39.3139)">
                            <path d="M661,567L894,567" style="fill:none;stroke:white;stroke-width:26.22px;"/>
                        </g>
                        <g transform="matrix(0.201717,0,0,0.201717,882.746,491.941)">
                            <path d="M661,567L894,567" style="fill:none;stroke:white;stroke-width:130.01px;"/>
                        </g>
                        <g transform="matrix(0.201717,0,0,0.201717,526.422,491.941)">
                            <path d="M661,567L894,567" style="fill:none;stroke:white;stroke-width:130.01px;"/>
                        </g>
                        <g transform="matrix(0.313305,0,0,0.201717,894.149,491.941)">
                            <path d="M661,567L894,567" style="fill:none;stroke:white;stroke-width:95.42px;"/>
                        </g>
                    </g>
                    <g transform="matrix(1,0,0,1,-2.55561,4.62662)">
                        <g transform="matrix(0.201717,0,0,0.201717,783.524,540.997)">
                            <path d="M661,567L894,567" style="fill:none;stroke:white;stroke-width:130.01px;"/>
                        </g>
                        <g transform="matrix(0.201717,0,0,0.201717,857.544,540.997)">
                            <path d="M661,567L894,567" style="fill:none;stroke:white;stroke-width:130.01px;"/>
                        </g>
                        <g transform="matrix(0.313305,0,0,0.201717,453.256,540.997)">
                            <path d="M661,567L894,567" style="fill:none;stroke:white;stroke-width:95.42px;"/>
                        </g>
                        <g transform="matrix(0.313305,0,0,0.201717,597.551,540.997)">
                            <path d="M661,567L894,567" style="fill:none;stroke:white;stroke-width:95.42px;"/>
                        </g>
                        <g transform="matrix(0.313305,0,0,0.201717,893.736,540.997)">
                            <path d="M661,567L894,567" style="fill:none;stroke:white;stroke-width:95.42px;"/>
                        </g>
                    </g>
                    <g transform="matrix(1,0,0,1,-2.55561,283.618)">
                        <g transform="matrix(0.201717,0,0,0.201717,783.524,540.997)">
                            <path d="M661,567L894,567" style="fill:none;stroke:white;stroke-width:130.01px;"/>
                        </g>
                        <g transform="matrix(0.201717,0,0,0.201717,857.544,540.997)">
                            <path d="M661,567L894,567" style="fill:none;stroke:white;stroke-width:130.01px;"/>
                        </g>
                        <g transform="matrix(0.313305,0,0,0.201717,453.256,540.997)">
                            <path d="M661,567L894,567" style="fill:none;stroke:white;stroke-width:95.42px;"/>
                        </g>
                        <g transform="matrix(0.313305,0,0,0.201717,597.551,540.997)">
                            <path d="M661,567L894,567" style="fill:none;stroke:white;stroke-width:95.42px;"/>
                        </g>
                        <g transform="matrix(0.313305,0,0,0.201717,893.736,540.997)">
                            <path d="M661,567L894,567" style="fill:none;stroke:white;stroke-width:95.42px;"/>
                        </g>
                    </g>
                    <g transform="matrix(1,0,0,1,-2.55561,562.61)">
                        <g transform="matrix(0.201717,0,0,0.201717,783.524,540.997)">
                            <path d="M661,567L894,567" style="fill:none;stroke:white;stroke-width:130.01px;"/>
                        </g>
                        <g transform="matrix(0.201717,0,0,0.201717,857.544,540.997)">
                            <path d="M661,567L894,567" style="fill:none;stroke:white;stroke-width:130.01px;"/>
                        </g>
                        <g transform="matrix(0.313305,0,0,0.201717,453.256,540.997)">
                            <path d="M661,567L894,567" style="fill:none;stroke:white;stroke-width:95.42px;"/>
                        </g>
                        <g transform="matrix(0.313305,0,0,0.201717,597.551,540.997)">
                            <path d="M661,567L894,567" style="fill:none;stroke:white;stroke-width:95.42px;"/>
                        </g>
                        <g transform="matrix(0.313305,0,0,0.201717,893.736,540.997)">
                            <path d="M661,567L894,567" style="fill:none;stroke:white;stroke-width:95.42px;"/>
                        </g>
                    </g>
                </g>
            </g>
        </g>
    </g>
</svg>
